X: 1463
T: Nevâ Peşrev
C: Zeki Mehmed Ağa
O: Turkey
F: http://compmusic.upf.edu/node/140
N: neva--pesrev--devrikebir----zeki_mehmet_aga
N: makam= neva
N: form= pesrev
N: usul= devrikebir = 28/4
M: 28/4
L: 1/16
K: C _2/4B ^3/4f  
Q: 1/4=92
%%MIDI tuningsystem comma53
d4 c4 {d}c4 B4  | ^f4 g4 g4 f4  | ^f4 e4 d4 a4  | \
w:  1. HANE  |   |   | 
a4 g4 g4 ^f4  | ^f4 e4 e4 d4  | e2d2 ^c8 d2d2  | 
w:   |   |   | 
d8 d4 z4  | d6^c2 d4 a4  | a4 g4 ^f4 a4  | \
w:   |   |   | 
a4 g4 a3g ^f4  | ^f2z2 e2f2 e4 f4  | 
w:   |   | 
g6a2 g2^f2 e4  | e2z2 d2e2 d4 e4  | e6=f2 e4 d4  | \
w:   |   |   | 
c6B2 c4 d4  | d4 c4 c4 B4  | 
w:   |   | 
c8 d8  | z4 d2d2 d4 e4  | ^f6g2 f2e2 d4  | \
w:   |   |   | 
g12 ^f4  | ^f4 e4 d4 a4  | a4 g4 ^f4 g4  | 
w:   |   |   | 
^f4 e4 =f4 e4  | d4 c2B2 c4 d2e2  | c3B A4 A8  | \
w:   |   |   | 
A4 B4 G6z2  | d^c=B2 c8 d2d2  | 
w:   |   | 
d12 z4  | d8 g4 ^f4  | g12 ^f4  | g6^f2 g4 a4  | \
w:   |  2. HANE  |   |   | 
a2z2 ^f2g2 f4 g4  | a4 b4 c'8  | c'4 b4 b4 a4  | 
w:   |   |   | 
a4 g4 a3g ^f4  | g4 a8 g4  | a6c'2 b4 a4  | \
w:   |   |   | 
a4 g2^f2 e8  | e6z2 ^f4 g4  | g4 ^f4 f4 e4  | 
w:   |   |   | 
a4 g4 g4 ^f4  | ^f4 e4 d4 z4  | d4 ^c4 d4 a4  | \
w:   |   |   | 
a4 ^g2=b2 a4 g4  | ^g2=f2 f2e2 d6z2  | 
w:   |   | 
e2d2 ^c4 c4 d4  | e8 d6z2  | ^c6_7/8e2 d4 c4  | \
w:   |   |   | 
^c2_7/8B2 B2A2 G6z2  | =f6e2 d4 f2a2  | 
w:   |   | 
g4 =f2e2 d4 c2B2  | c4 B2c2 d4 c2B2  | \
w:   |   | 
c3B A12  | A4 B4 G6z2  | d^c=B2 c8 d2d2  | 
w:   |   |   | 
d12 z4  | a12 g4  | b4 c'4 c'8  | c'4 b4 a2b2 a4  | \
w:   |  3. HANE  |   |   | 
a6z2 c'4 b4  | a8 g4 ^f4  | ^f3e f2g2 f4 g4  | 
w:   |   |   | 
^f4 e4 d4 e4  | d4 c2B2 c6z2  | e4 d2c2 d6z2  | \
w:   |   |   | 
e6d2 e6z2  | e6^f2 g4 a4  | 
w:   |   | 
g4 ^f4 e4 d4  | e2d2 ^c8 d2d2  | d12 z4  | \
w:   |   |   | 
d6z2 g4 ^f4  | g12 ^f4  | g4 ^f2e2 d8  | 
w:   |   |   | 
d6z2 g4 ^f4  | _7/8e4 d4 c4 d4  | _7/8e2d2 e2^f2 e4 d4  | \
w:   |   |   | 
d4 c4 B6z2  | B6c2 d4 a4  | 
w:   |   | 
g4 =f2_1/4e2 d4 c2B2  | c6B2 c4 d2e2  | \
w:   |   | 
c3B A12  | A4 B4 G6z2  | d^c=B2 c8 d2d2  | 
w:   |   |   | 
d12 z4  | A8 A4 G4  | c4 d4 d6z2  | d4 c2B2 c3B A4  | \
w:   |  4. HANE  |   |   | 
A6z2 c4 B4  | A8 G4 ^F4  | 
w:   |   | 
^F2E2 F2G2 F4 G4  | ^F4 E4 D8  | D6z2 ^F4 G4  | \
w:   |   |   | 
A8 B8  | c4 d4 c4 B4  | B6z2 d4 c4  | 
w:   |   |   | 
d8 e6z2  | e4 ^f8 g4  | ^f4 e4 d6z2  | d6z2 c'4 b4  | \
w:   |   |   |   | 
a8 g4 ^f4  | g2^f2 e4 d6z2  | 
w:   |   | 
c4 d4 d4 B4  | c4 B4 g4 ^f4  | g2^f2 e8 d4  | \
w:   |   |   | 
d12 z4  | d6c2 d2e2 =f4  | e4 d4 c6B2  | 
w:   |   |   | 
c6B2 c4 d2e2  | c3B A12  | |


